X: 29
T:Weall oftle Johns M? Mhargh.
Z:id:hn-march-10
M:2/4
L:1/8
K:G
BAG EFE|AB/d AFD|
GAB dBG|A


*****************************


13700 4 1.6420789 

<starton paif ca parts ive gin on maith tune air fat
W: Vun Mallh da bhondier, The
R:march
D:Duiram Coffe


*****************************


13800 4 1.0457623 

<starto] 2 E2E E2D |
G2A A2d | ded cBA | A>AF AEFA |1 AAB c2A :|2 dcd fed | eAA d2f ||
<end>
<start>
